svgs/thin/brackets-curly.svg

<svg xmlns="http://www.w3.org/2000/svg" viewBox="0 0 576 512"><!-- Font Awesome Pro 6.0.0-alpha2 by @fontawesome - https://fontawesome.com License - https://fontawesome.com/license (Commercial License) --><path d="M112 152.453V104C112 73.125 137.125 48 168 48H216C220.422 48 224 44.422 224 40S220.422 32 216 32H168C128.297 32 96 64.297 96 104V152.453C96 193.531 73.172 230.469 36.422 248.844C33.719 250.203 32 252.969 32 256S33.719 261.797 36.422 263.156C73.172 281.531 96 318.469 96 359.547V408C96 447.703 128.297 480 168 480H216C220.422 480 224 476.422 224 472S220.422 464 216 464H168C137.125 464 112 438.875 112 408V359.547C112 317.203 90.891 278.703 56.062 256C90.891 233.297 112 194.797 112 152.453ZM539.578 248.844C502.828 230.469 480 193.531 480 152.453V104C480 64.297 447.703 32 408 32H360C355.578 32 352 35.578 352 40S355.578 48 360 48H408C438.875 48 464 73.125 464 104V152.453C464 194.797 485.109 233.297 519.938 256C485.109 278.703 464 317.203 464 359.547V408C464 438.875 438.875 464 408 464H360C355.578 464 352 467.578 352 472S355.578 480 360 480H408C447.703 480 480 447.703 480 408V359.547C480 318.469 502.828 281.531 539.578 263.156C542.281 261.797 544 259.031 544 256S542.281 250.203 539.578 248.844Z"/></svg>

<svg xmlns="http://www.w3.org/2000/svg" viewBox="0 0 576 512"><!--! Font Awesome Pro 6.3.0 by @fontawesome - https://fontawesome.com License - https://fontawesome.com/license (Commercial License) Copyright 2023 Fonticons, Inc. --><path d="M112 152.5V104c0-30.88 25.12-56 56-56h48C220.4 48 224 44.42 224 40S220.4 32 216 32h-48C128.3 32 96 64.3 96 104v48.45c0 41.08-22.83 78.02-59.58 96.39C33.72 250.2 32 252.1 32 256s1.719 5.797 4.422 7.156C73.17 281.5 96 318.5 96 359.5V408C96 447.7 128.3 480 168 480h48C220.4 480 224 476.4 224 472S220.4 464 216 464h-48c-30.88 0-56-25.12-56-56v-48.45C112 317.2 90.89 278.7 56.06 256C90.89 233.3 112 194.8 112 152.5zM539.6 248.8C502.8 230.5 480 193.5 480 152.5V104C480 64.3 447.7 32 408 32h-48C355.6 32 352 35.58 352 40s3.578 8 8 8h48c30.88 0 56 25.12 56 56v48.45C464 194.8 485.1 233.3 519.9 256C485.1 278.7 464 317.2 464 359.5V408c0 30.88-25.12 56-56 56h-48c-4.422 0-8 3.578-8 8S355.6 480 360 480h48c39.7 0 72-32.3 72-72v-48.45c0-41.08 22.83-78.02 59.58-96.39C542.3 261.8 544 259 544 256S542.3 250.2 539.6 248.8z"/></svg>
